X: 131
T: Jako rzecz piękna, jako rzecz przyjemna
C: Mikołaj Gomółka
%%abc-version 2.0
%%abcx-abcm2ps-target-version 5.9.1 (29 Sep 2008)
%%abc-creator hum2abc beta
%%abcx-conversion-date 2021/10/04 07:59:10
%%abc-edited-by Leszek Kubiak
%%abcx-initial-encoding-date data 2020-02-25
%%humdrum-veritas 697014777
%%humdrum-veritas-data 2888935422
%%linebreak <none>
%%barnumbers 0
L: 1/4
M: C
N: Derived from pl-wn--sd-xvi-qu-273--133_gomolka-mikolaj--jako-rzecz-piekna-jako-rzecz-przyjemna.krn
%%staves [1 2 3 4]
V: 1
V: 2 clef=alto
V: 3 clef=alto
V: 4
K: C
[V:1] c4B2c2 [|] 
[V:2] G2G2>F2E2 [|] 
[V:3] E4D2C4 [|] 
[V:4] C,4G,2C,2 [|] 
[V:1] A4G2G3 [|] 
[V:2] F2>D2E3D [|] 
[V:3] B,A,B,2C2 [|] 
[V:4] F,4E,2C,2 [|] 
[V:1] EF2G2G4 [|] 
[V:2] C4D2ED [|] 
[V:3] A,4G,2C4 [|] 
[V:4] C4B,2CB, [|] 
[V:1] F2G4 [|] 
[V:2] CB,C2D2E2 [|] 
[V:3] B,A,B,2C2 [|] 
[V:4] A,G,A,2G,2C,2 [|] 
[V:1] c4B2cB [|] 
[V:2] C4D2ED [|] 
[V:3] A,4G,2GF [|] 
[V:4] z4z2C4 [|] 
[V:1] AGA2G2AG [|] 
[V:2] CB,C2D2CD [|] 
[V:3] EDE2D2ED [|] 
[V:4] C2B,2CB, [|] 
[V:1] FG2FG2G2 [|] 
[V:2] E2DCB,2E2 [|] 
[V:3] CB,C2D2C2 [|] 
[V:4] A,G,A,2G,2C,2 [|] 
[V:1] F2E2D4 [|] 
[V:2] F2G2G3F [|] 
[V:3] A,B,C4B,2 [|] 
[V:4] F,2C,2G,4 [|] 
[V:1] C2c2e4 [|] 
[V:2] E2>F2G2A3 [|] 
[V:3] CDE4C2 [|] 
[V:4] A,B,C4A,2 [|] 
[V:1] d2c4B2 [|] 
[V:2] G2<G2FD2 [|] 
[V:3] D2E2D4 [|] 
[V:4] B,2C2G,4 [|] 
[V:1] c2c2B2c2 [|] 
[V:2] E2G2G2G2 [|] 
[V:3] C2E2D2E2 [|] 
[V:4] C,2C,2G,2E,2 [|] 
[V:1] A4G4 [|] 
[V:2] F2>E2DCD2 [|] 
[V:3] D2C4B,2 [|] 
[V:4] F,2F,2G,4 [|] 
[V:1] G32 [|] 
[V:2] E32 [|] 
[V:3] C32 [|] 
[V:4] C,32 [|] 


